src/lib/packages/icons/src/assets/filled/envelopes.svg

<svg width="24" height="24" viewBox="0 0 24 24" fill="none" xmlns="http://www.w3.org/2000/svg">
<path d="M21 6.67V14.33C21 15.436 20.6539 16.203 19.9619 16.62C19.8219 16.704 19.5 16.68 19.5 16.345V9.66901C19.5 7.05901 17.9401 5.49899 15.3301 5.49899H5.67212C5.29412 5.49899 5.29992 5.166 5.38892 5.022C5.80792 4.34 6.57192 3.99899 7.66992 3.99899H18.3301C20.1101 3.99999 21 4.89 21 6.67ZM18 9.66701V17.334C18 19.112 17.111 20.001 15.333 20.001H4.66602C2.88802 20.001 1.99902 19.112 1.99902 17.334V9.66701C1.99902 7.88901 2.88802 7 4.66602 7H15.333C17.111 7 18 7.88901 18 9.66701ZM15.74 10.292C15.497 9.95801 15.0289 9.88201 14.6919 10.126L10.1069 13.46C10.0429 13.507 9.95709 13.507 9.89209 13.46L5.30688 10.126C4.96988 9.88201 4.50203 9.95801 4.25903 10.292C4.01503 10.627 4.08907 11.096 4.42407 11.34L9.00903 14.674C9.30503 14.89 9.65302 14.997 9.99902 14.997C10.345 14.997 10.693 14.889 10.989 14.674L15.574 11.34C15.91 11.096 15.984 10.627 15.74 10.292Z" fill="currentColor"/>
</svg>

<svg xmlns="http://www.w3.org/2000/svg" width="24" height="24" fill="none"><path fill="currentColor" d="M21 6.67v7.66c0 1.106-.346 1.873-1.038 2.29-.14.084-.462.06-.462-.275V9.669c0-2.61-1.56-4.17-4.17-4.17H5.672c-.378 0-.372-.333-.283-.477.419-.682 1.183-1.023 2.28-1.023H18.33C20.11 4 21 4.89 21 6.67Zm-3 2.997v7.667c0 1.778-.889 2.667-2.667 2.667H4.666c-1.778 0-2.667-.889-2.667-2.667V9.667C1.999 7.889 2.888 7 4.666 7h10.667C17.111 7 18 7.889 18 9.667Zm-2.26.625a.75.75 0 0 0-1.048-.166l-4.585 3.334a.181.181 0 0 1-.215 0l-4.585-3.334a.75.75 0 0 0-.883 1.214l4.585 3.334a1.678 1.678 0 0 0 1.98 0l4.585-3.334a.75.75 0 0 0 .166-1.048Z"/></svg>
